X:317
T:Reel 317
M:4/4
K:Dmaj
L:1/8
AG|FDEC A,DDC| (3B,CD EC GBAG|FDEC A,DDF|EDCB, CA,B,C|A,DDF EDDG|FABc BAGF|ECEF G2AG|FDEC A,DD2|FAAG F2AF|EA,CB, CDEG|FDFA d2dA| (3EFG FD A,DDE|FABA  (3FGA dF|EFGC ECCE|FADC DEFG|Addc BGFD|
